X:1
T:Ne te plains tant
T:Pierre de Villiers
T:Source : Livre premier contenant 29 chansons nouvelles à 4---Paris---P.Attaignant---1536. Editor : André Vierendeels (06/01/18).
T:Ne te plains tant
T:©
T:©
T:©
T:©
C:Pierre de Villiers
Z:©
%%score [ 1 2 3 4 ]
L:1/8
Q:1/4=128
M:2/2
K:C
V:1 treble nm="Soprano" snm="S"
V:2 treble nm="Alto" snm="A"
V:3 treble-8 nm="Tenor" snm="T"
V:4 bass nm="Bass" snm="B"
V:1
 G8 | G4 A4 | G4 z2 A2 | A2 G2 c4 | B4 A4 | z4 z2 A2 | A2 G2 c4- | c2 BA GA B2- | BA A3 G/F/ G2 | %9
w: Ne|te plains|tant, a-|my, de ta|dou- leur,|a-|my, de ta|_ _ _ _ _ _|* * * * * dou-|
 A4 z2 A2 | A2 A2 c3 B | A2 A2 G4 | F2 E4 D2 | E2 A2 A2 A2 | c3 B A2 G2 | F2 E4 D2 | E8 | %17
w: leur, que|quel- que fois ne|pleu- re le|mal- * *|heur, que quel- que|fois ne pleu- re|le mal- *|heur,|
 z2 c2 c2 B2 | A2 A2 G2 G2 | E3 F G4 | C4 z4 | z4 z2 G2 | G2 G2 c2 c2 | B4 z2 G2 | G2 G2 c2 c2 | %25
w: qui n'a don-|né loy- sir et|temps pro- pi-|ce,|qui|n'a don- né loy-|sir, qui|n'a don- né loy-|
 B3 c d2 e2 | dcBA B2 A2- |"^#" AG G4 F2 | G8 | z4 z2 G2 | G2 G2 c4 | B4 z2 A2 | A2 G2 A4 | %33
w: sir et temps pro-|pi- * * * * *||ce,|de|re- con- gnoi-|stre à|mon gré, le|
 B4 c3 B |"^#" AG A4 GF | G4 z4 |: G8 | G4 A4 | G4 z2 A2 | A2 G2 c4 | B4 A4 | z4 z2 A2 | %42
w: ser- vi- *||ce,|qui|m'a le|cueur es-|tran- gé de|ri- gueur|qui|
 A2 G2 c4- | c2 BA GABc | BA A4 G2 | A8 :| %46
w: m'a es- tran-|* * * gé _ _ _|_ _ de ri-|gueur.|
V:2
 E8 | E4 D4 | E4 E4- | E8- | E8- | E4 z4 | z2 E2 C2 A,2 | C3 D E2 F2- | F2 D2 E4- | E8- | %10
w: Ne|te _|plains tant,|_|||a- my, de|ta _ _ dou-|* * leur,|_|
 E4 z2 E2 | E2 D2 E3 D | CA, A2 A2 A2 | GFED C2 F2 | F2 F2 E2 E2 | C4 z2 A,2 | A,2 A,2 C3 B, | %17
w: * que|quel- que fois, _|_ _ que quel- que|fois _ _ _ _ ne|pleu- re le mal-|heur, ne|pleu- re le _|
 A,2 G,2 A,2 B,2 | C3 D E4- | E4 z4 | z4 z2 G2 | G2 F2 E2 D2 | E2 E2 CDEF | G3 F E2 D2 | E4 C2 G2 | %25
w: _ mal- * *|* * heur,|_|qui|n'a don- né loy-|sir et temps _ _ _|_ _ _ pro-|pi- ce, qui|
 G2 G2 G2 E2 | G4 z2 C2 | E2 C2 D4 | B,2 D2 D2 D2 | G3 F ED E2 | D4 z2 G2 | G2 G2 G2 F2 | E8- | %33
w: n'a don- né loy-|sir et|temps pro- pi-|ce, de re- con-|gnoi- * * * *|stre à|mon gré, le ser-|vi-|
 E8 | A,4 E4 | E4 z4 |: E8 | E4 D4 | E4 E4- | E8- | E8- | E4 z4 | z2 E2 C2 A,2 | C3 D E2 F2- | %44
w: ||ce,|qui|m'a _|le cueur|_|||es- tran- *|gé _ _ de|
 F2 D2 E4 |"^#" C8 :| %46
w: _ _ ri-|gueur|
V:3
 B8 | c4 A4 | B2 G2 c2 c2 | B2 B2 A3 G | E4 z2 A2 | A2 G2 c4 | B4 ABcd | e3 d Bc d2- | dcBA B4 | %9
w: Ne|te plains|tant, a- my, de|ta dou- * *|leur, de|ta _ dou-||||
 A4 z4 | z4 z2 A2 | A2 A2 c3 B | A3 G F2 F2 | E2 z2 z2 A2 | A2 A2 c3 B | A2 G2 F2 F2 | E8- | E8 | %18
w: leur,|que|quel- que fois ne|pleu- re le mal-|heur, que|quel- que fois ne|pleu- re le mal-|heur,|_|
 z2 c2 c2 B2 | A2 A2 G2 G2 | ABcA Bc d2- | dc c4 B2 | c4 z4 | z2 G2 G2 G2 | cBcd e2 e2 | d4 z2 A2 | %26
w: qui n'a don-|né loy- sir et|temps _ _ _ _ _ pro-|* * pi- *|ce,|qui n'a don-|né _ _ _ _ loy-|sir, et|
 d3 c B2 c2- | cBAG A4 | G4 z2 G2 | G2 G2 c4 | B2 B2 e2 e2 | d2 B2 c2 dc | BA B2 c4 | B4 A2 G2 | %34
w: temps _ _ pro-|* * * * pi-|ce, de|re- con- gnoi-|stre à mon gré|le ser- * * *||* vi- *|
 A2 c4 BA | B4 z4 |: B8 | c4 A4 | B2 G2 c2 c2 | B2 B2 A3 G | E4 z2 A2 | A2 G2 c4 | B4 ABcd | %43
w: |ce,|qui|m'a le|cueur es- tran- gé|de ri- gueur _|_ es-|tran- gé de|ri- gueur, _ , _|
 e3 d Bc d2- | dcBA B4 | A8 :| %46
w: _ _ _ _ de|_ _ _ _ ri-|gueur.|
V:4
 E,8 | E,4 F,4 | E,3 D, C,2 B,,A,, |"^#" E,4 A,,2 A,2 | A,2 G,2 C4 | B,4 A,2 F,2 | D,2 E,2 F,4 | %7
w: Ne|te plains|tant, a- my _ _|de ta dou-|leur, de ta|dou- leur, a-|my, de ta|
 E,6 D,2 | F,4 E,4 | A,,2 A,2 A,2 A,2 | C3 B, A,3 G, | F,2 F,2 E,4 | z2 A,2 A,2 A,2 | %13
w: dou- *||leur, que quel- que|fois ne pleu- re|le mal- heur,|que quel- que|
 C3 B, A,G, F,E, | F,2 F,2 C,4 | z8 | A,,4 A,,2 A,,2 | C,3 B,, A,,2 G,,2 | A,,2 A,,2 E,4 | %19
w: fois ne pleu- * re _|le- mal- heur,||que quel- que|fois ne pleu- re|le mal- heur,|
 z2 C,2 C,2 B,,2 | A,,2 A,,2 G,,2 G,2 | E,2 F,2 G,4 | C,8 | z8 | z2 C,2 C,2 C,2 | G,3 A, B,2 C2 | %26
w: qui n'a don-|né loy- sir et|temps pro- pi-|ce,||qui n'a don-|né _ _ loy-|
 G,2 G,2 G,2 F,2 | E,4 D,4 | G,,8 | z2 C,2 C,2 C,2 | G,4 C,2 C,2 | G,3 F, E,2 D,2 | E,4 A,,2 A,2 | %33
w: sir et temps pro-|pi- *|ce,|de rcon- gnoi-|stre à mon|gré _ _ _|le ser- *|
 A,2 G,2 A,2 E,2 | F,4 E,4- | E,4 z4 |: E,8 | E,4 F,4 | E,3 D, C,2 B,,A,, | E,4 A,,2 A,2 | %40
w: * * vi- *||ce,|qui|m'a le|cueur es- tran- gé _|de _ ri-|
 A,2 G,2 C4 | B,4 A,2 F,2 | D,2 E,2 F,4 | E,6 D,2 | F,4 E,4 | A,,8 :| %46
w: gueur, es- tran-|gé de te-|gueur, es- tran-|gé de|ri- *|gueur.|

